X: 42319
T: Wee Freddy's
R: jig
M: 6/8
K: Eminor
M:7/8
EED EE BG|AAG AB BG|EED EE BG|AAG FD FB|
EED EE BG|AAG Bz AG|EGB de BG|1 AAG FD FB:|2 AAG FG AB||
|:deg eB de|a z g ed ee|age ed AB|deB AG ED|
deg eB de|a z g ed ee|age ed AB|1 deg AB d2:|2 deB AG ED||

